assets/images/signIn/apple-logo.svg

<svg xmlns="http://www.w3.org/2000/svg" width="40" height="40" fill="none" viewBox="0 0 40 40"><rect width="40" height="40" fill="#fff" rx="20"/><path fill="#000" d="M19.7227 13.1538C20.5547 13.1538 21.5977 12.6046 22.2188 11.8722C22.7812 11.2085 23.1914 10.2816 23.1914 9.35474C23.1914 9.22886 23.1797 9.10299 23.1562 9C22.2305 9.03433 21.1172 9.60648 20.4492 10.3732C19.9219 10.9568 19.4414 11.8722 19.4414 12.8106C19.4414 12.9479 19.4648 13.0852 19.4766 13.131C19.5352 13.1424 19.6289 13.1538 19.7227 13.1538ZM16.793 27C17.9297 27 18.4336 26.2562 19.8516 26.2562C21.293 26.2562 21.6094 26.9771 22.875 26.9771C24.1172 26.9771 24.9492 25.8557 25.7344 24.7572C26.6133 23.4984 26.9766 22.2626 27 22.2053C26.918 22.1825 24.5391 21.2327 24.5391 18.5664C24.5391 16.2549 26.4141 15.2136 26.5195 15.1335C25.2773 13.3942 23.3906 13.3484 22.875 13.3484C21.4805 13.3484 20.3438 14.1723 19.6289 14.1723C18.8555 14.1723 17.8359 13.3942 16.6289 13.3942C14.332 13.3942 12 15.2479 12 18.7495C12 20.9237 12.8672 23.2238 13.9336 24.7114C14.8477 25.9701 15.6445 27 16.793 27Z"/></svg>

<svg xmlns="http://www.w3.org/2000/svg" width="40" height="40" fill="none" viewBox="0 0 40 40"><rect width="40" height="40" fill="#fff" rx="20"/><path fill="#000" d="M19.723 13.154c.832 0 1.875-.55 2.496-1.282.562-.663.972-1.59.972-2.517 0-.126-.011-.252-.035-.355-.925.034-2.039.606-2.707 1.373-.527.584-1.008 1.5-1.008 2.438 0 .137.024.274.036.32.058.011.152.023.246.023M16.793 27c1.137 0 1.64-.744 3.059-.744 1.441 0 1.757.721 3.023.721 1.242 0 2.074-1.121 2.86-2.22.878-1.259 1.242-2.494 1.265-2.552-.082-.022-2.46-.972-2.46-3.639 0-2.311 1.874-3.352 1.98-3.432-1.243-1.74-3.13-1.786-3.645-1.786-1.395 0-2.531.824-3.246.824-.774 0-1.793-.778-3-.778-2.297 0-4.629 1.854-4.629 5.356 0 2.174.867 4.474 1.934 5.961.914 1.26 1.71 2.289 2.859 2.289"/></svg>
